X:1
T:James Gibb editions
T:Arise, O God, and shine - Barnby
%%score [ ( 1 2 ) ( 3 4 ) ]
L:1/8
Q:1/4=96
M:4/4
K:D
V:1 treble nm="Midi_74"
V:2 treble 
V:3 bass nm="Midi_74"
V:4 bass 
V:1
"^St James the Less (66. 66. 88)""^William Hurn\n(1754-1829)""^Arise, O God, and shine""^Joseph Barnby\n(1838-96)" F2 | %1
 A2 B2 E2 G2 | F6 | A2 | B2 d2 c2 B2 | A6 || F2 | A2 B2 B2 A2 | F6 || F2 | d2 c2 B2 ^G2 | A6 || %12
[M:4/4] A2 | B2 c2 d2 A2 | G2 A2 F2 || F2 | G2 A2 B2 E2 | E6 D2 | D4 || G4 F4 |] %20
V:2
 D2 | D2 D2 D2 C2 | D6 | C2 | D2 F2 E2 D2 | C6 || D2 | D2 D2 D2 C2 | D6 || E2 | D2 E2 F2 D2 | C6 || %12
[M:4/4] A2 | G2 G2 F2 D2 | D2 C2 D2 || D2 | D2 D2 D2 D2 | (D4 C2) D2 | A,4 || D4 D4 |] %20
V:3
 A,2 | D2 B,2 A,2"^1" A,2 | A,6 | A,2 | F,2 F,2 ^G,2 G,2 | A,6 || A,2 | F,2 F,2 G,2 E,2 | F,6 || %9
 ^A,2 | B,2 ^A,2 B,2 B,2 | =A,6 ||[M:4/4] C2 | %13
"^1 Arise, O God, and shine\nin all thy saving might,\nand prosper each design\nto spread thy glorious light:\nlet healing streams of mercy flow,\nthat all the earth thy truth may know.\n\n2 Bring distant nations near\nto sing thy glorious praise;\nlet ev'ry people hear\nand learn thy holy ways:\nreign, mighty God, assert thy cause,\nand govern by thy righteous laws." D2 E2 D2 F,2 | %14
 E,2 E,2 D,2 || A,2 | %16
 G,2 F,2"^3 Send forth thy glorious pow'r,\nthat Gentiles all may see,\nand earth present her store\nin converts born to thee:\nGod, our own God, thy church O bless,\nand fill the world with righteousness.\n\n4 To God, the only wise,\nthe one immortal King,\nlet hallelujahs rise\nfrom ev'ry living thing:\nlet all that breathe, on ev'ry coast,\npraise Father, Son, and Holy Ghost." E,2 B,2 | %17
 (A,2 E,2) G,4 | F,4 || B,4 A,4 |] %20
V:4
 D,2 | F,2 G,2 A,2 A,,2 | D,6 | F,2 | B,,2 B,,2 E,2 E,2 | A,,6 || D,2 | D,2 B,,2 E,2 A,,2 | D,6 || %9
 C,2 | B,,2 C,2 D,2 E,2 | A,,6 ||[M:4/4] A,2 | A,2 A,2 A,2 A,,2 | A,,2 A,,2 B,,2 || =C,2 | %16
 B,,2 A,,2 G,,2 G,,2 | A,,6 A,,2 | D,4 || G,,4 D,4 |] %20

